X:1
T:Christus resurgens
T:William Byrd (c.1540-1623)
T:Secunda pars.
T:Christus resurgens
T:© Choral Public Domain Library 2010
T:© Choral Public Domain Library 2010
T:© Choral Public Domain Library 2010
T:© Choral Public Domain Library 2010
T:© Choral Public Domain Library 2010
T:© Choral Public Domain Library 2010
T:© Choral Public Domain Library 2010
T:© Choral Public Domain Library 2010
C:William Byrd (c.1540-1623)
Z:Secunda pars.
Z:© Choral Public Domain Library 2010
%%score [ 1 2 3 4 ]
L:1/8
M:4/4
K:F
V:1 treble nm="Alto" snm="A."
V:2 treble-8 transpose=-12 nm="Tenor" snm="T."
V:3 treble-8 transpose=-12 nm="Tenor" snm="T."
V:4 bass nm="Bass" snm="B."
V:1
 [A,f]2 | z22 |[M:4/2] z4 F4 E6 D2 | ^C4 =C4 C6 B,2 | A,4 z4 z4 B4- | B2 A2 A8 G4 | A4 G8 B4 | %7
w: ||Ex mor- tu-|is, ex mor- tu-|is, jam|_ non mo- ri-|tur, jam non|
 A6 G2 ^F4 =F4- | F2 E2 D8 ^C4 | D8 z4 d4 | ^c6 c2 d8 | z8 z4 G4 | F6 G2 A4 F4- | F2 D2 F8 E4 | %14
w: mo- ri- tur, jam|_ non mo- ri-|tur, ex|mor- tu- is,|ex|mor- tu- is, jam|_ non mo- ri-|
 F8 A6 D2 | E4 A4 A8 | z4 d4 ^c6 c2 | d4 G4 A4 B4- | B4 A4 G6 G2 | ^F4 =F4 E3 F G4 | C4 c6 c2 =B4 | %21
w: tur, jam non|mo- ri- tur,|ex mor- tu-|is, jam non mo-|* * * ri-|tur: Mors il- * *|li ul- tra non|
 c4 E4 G6 G2 | C2 A2 F2 E2 D6 D2 | G4 G4 F3 G A4- | A4 D4 z4 B4 | A3 B c8 G4 | z4 c6 c2 =B4 | %27
w: do- mi- na- bi-|tur, non do- mi- na- bi-|tur, mors il- * *|* li, mors|il- * * li|ul- tra non|
 c4 G4 A4 B4 | A4 A6 A2 F4 | D4 F4 E3 F G4- | G2 F2 E2 D2 ^C2 D4 C2 | D8 z4 A4 | %32
w: do- mi- na- bi-|bur, ul- tra non|do- mi- na- * *|* * * * * * bi-|tur, quod|
 B4 A4 G2 A2 B2 G2 | A8 z8 | D6 E2 F4 C4 | z4 A6 =B2 c4- | c4 =B4 c8 | z8 z4 d4 | %38
w: e- nim vi- * * *|vit,|vi- vit De- o,|vi- vit De-|* * o,|quod|
 e4 d4 ^c2 d2 e2 c2 | d4 A6 B2 c4- | c4 F2 G2 A8 | z8 z4 A4 | =B4 A4 ^G2 A2 B2 G2 | %43
w: e- nim vi- * * *|vit, vi- vit De-|* * * o,|quod|e- nim vi- * * *|
 A4 E6 F2 G2 A2 | =B2 G2 c6 B2 A2 G2 | ^F8 z8 | z8 z4 d2 d2 | =B4 ^c4 d4 e2 e2 | f4 d4 c8 | %49
w: vit, vi- vit De- *||o.|Al- le-|lu- * ia. Al- le-|lu- * ia.|
 z8 z4 B4- | B2 A2 B2 A2 G2 F2 G4 | A8 D4 D4 | G4 E4 z4 A4- | A2 F2 c2 B2 A2 G2 A2 =B2 | c8 z8 | %55
w: Al-|* le- lu- * * * *|ia. Al- le-|lu- ia. Al-|* le- lu- * * * * *|ia.|
 z16 | z4 d6 c2 e2 d2 | ^c2 =B2 c4 d4 A4- | A2 G2 B2 A2 G2 F2 G4 | !fermata!^F16 || z16 | z16 | %62
w: |Al- le- lu- *|* * * ia. Al-|* le- lu- * * * *|ia.|||
 z8 D8 | E4 A8 G4 | A8 D6 F2 | E8 D8 | z8 z4 A4- | A2 A2 B4 c6 B2 | A4 A4 G8 | z4 F4 D4 D4 | %70
w: Di-|cant nunc Ju-|dæ- i, Ju-|dæ- i,|quo-|* mo- do mi- *|* li- tes|cu- sto- di-|
 F8 C4 F2 A2- | A2 GF G4 A8 | z4 A8 A4 | B4 A4 A2 G2 F2 G2 | A2 B2 c8 B2 A2 | G8 z4 A4- | %76
w: en- tes se- pul-|* * * * chrum|per- di-|de- runt Re- * * *||gem, ad|
 A4 F8 G4 | A6 A2 D2 E2 F4- | F2 ED E4 F8 | z8 z4 c4 | A6 B2 c4 G4 | B4 c4 d8 | c8 z8 | z8 c6 A2 | %84
w: _ la- pi-|dis po- si- ti- o-|* * * * nem,|ad|la- pi- dis po-|si- ti- o-|nem.|Qua- re|
 B6 G2 A4 F4 | z8 z4 c4- | c4 A4 B4 G4 | A4 F4 z4 A4 | G4 A4 B6 B2 | A8 z8 | z8 z4 B4- | %91
w: non ser- va- bant,|qua-|* re non ser-|va- bant pe-|tram ju- sti- ti-|æ?|aut|
 B2 A2 G8 ^F4 | G8 D8 | z4 A4 B6 c2 | d4 A4 c4 d4- | d2 c2 B2 AG F2 G2 A4 | z16 | z8 z4 A4- | %98
w: _ se- pul- tum|red- dant,|aut re- sur-|gen- tem a- do-|* * * * * * * rent,||no-|
 A4 d8 c4- | c4 B4 A8- | A8 A8 | z16 | z4 d2 d2 =B4 ^c4 | d4 e2 e2 f4 d4 | c8 z8 | z4 B6 A2 B2 A2 | %106
w: * bis- cum|_ di- cen-|* tes||Al- le- lu- *|ia. Al- le- lu- *|ia.|Al- le- lu- *|
 G2 F2 G4 A8 | D4 D4 G4 E4 | z4 A6 F2 c2 B2 | A2 G2 A2 =B2 c8 | z16 | z8 z4 d4- | %112
w: * * * ia.|Al- le- lu- ia.|Al- le- lu- *|* * * * ia.||Al-|
 d2 ^c2 e2 d2 c2 =B2 c4 | d4 A6 G2 B2 A2 | G2 ^F2 G8 F2 E2 | !fermata!^F16 |] %116
w: * le- lu- * * * *|ia. Al- le- lu- *||ia.|
V:2
 [^Cb]2 | z22 |[M:4/2] z4 d4 ^c6 d2 | e4 f4 e6 d2 | ^c8 d8 | d4 f8 d4 | e4 e6 d2 d4- | d4 ^c4 d8 | %8
w: ||Ex mor- tu-|is, ex mor- tu-|is, jam|non mo- ri-|tur, jam non mo-|* ri- tur,|
 z8 z4 g4 | ^f6 f2 g8 | e4 a4 b6 b2 | a4 d4 ^c6 c2 | d4 d6 c2 c4- | c4 =B4 c8 | z4 A6 D2 A4- | %15
w: ex|mor- tu- is,|jam non mo- ri-|tur, ex mor- tu-|is, jam non mo-|* ri- tur,|jam non mo-|
 A4 A4 A4 d4 | B6 B2 A8 | F4 B4 A2 Bc d4- | d4 c4 B6 B2 | A4 A4 c4 =B4 | A8 z4 g4 | %21
w: * ri- tur, ex|mor- tu- is,|jam non mo- * * *|* * * ri-|tur, non mo- ri-|tur: Mors|
 e3 f g4 c4 c4- | c2 c2 A4 z4 d4- | d2 d2 ^c4 d4 D4 | A6 A2 D8 | z8 z4 G4- | G2 G2 ^F4 G2 D2 G4- | %27
w: il- * * li ul-|* tra non, ul-|* tra non do- mi-|na- bi- tur,|ul-|* tra non do- mi- na-|
 G2 F2 E2 D2 ^C4 D4- | D4 ^C4 D8 | z4 d6 d2 ^c4 | d4 A4 A6 A2 | A8 d4 f4- | f4 A4 c4 G4 | %33
w: |* bi- tur,|ul- tra non|do- mi- na- bi-|tur, quod e-|* nim vi- vit,|
 c4 f4 _e2 d4 c2 | B2 A2 G4 c8 | z4 e4 f6 e2 | d2 e2 f2 d2 e4 e4- | e2 f2 g8 f4 | e2 f2 g2 d2 a8 | %39
w: vi- vit De- * *|* * * o,|quod e- nim|vi- * * * vit, vi-|* vit De- *|* * * * o,|
 z16 | A6 =B2 c6 B2 | A2 G2 G8 ^F4 | G4 A4 c4 =B4 | A2 =B2 c2 BA G4 c4- | c2 =B2 A2 G2 d4 c2 B2 | %45
w: |vi- vit De- *||o, quod e- nim|vi- * * * * vit, vi-|* vit De- * * * *|
 d8 z4 d2 d2 | =B4 ^c4 d4 f2 a2 | g4 e4 d4 z4 | z4 f6 e2 f2 e2 | d2 c2 d4 d8 | z8 z4 c4- | %51
w: o. Al- le-|lu- * ia. Al- le-|lu- * ia.|Al- le- lu- *|* * * ia.|Al-|
 c2 A2 d2 c2 =B2 A2 B4- | B4 ^c4 d8 | z8 z4 A4- | A2 G2 g2 f2 e2 d2 e4- | e4 ^f4 g4 z2 a2- | %56
w: * le- lu- * * * *|* * ia.|Al-|* le- lu- * * * *|* * ia. Al-|
 a2 f2 b2 a2 a4 g2 f2 | e8 A4 d4- | d4 d4 d8 | !fermata!d16 || A8 B4 d4- | d4 ^c4 d8 | %62
w: * le- lu- * ia. Al- le-|lu- ia. Al-|* le- lu-|ia.|Di- cant nunc|_ Ju- dæ-|
 A6 c2 B2 A2 d4 | ^c8 d6 d2 | e4 f6 e2 d4- | d4 ^c4 d4 f4- | f2 f2 g4 a6 g2 | f4 f4 e4 f4 | %68
w: i, Ju- dæ- * *|i, quo- mo-|do mi- * *|* li- tes, quo-|* mo- do mi- *|* li- tes _|
 c8 z4 G4 | c4 A4 B8 | A8 z4 A4 | d4 d4 f8 | e4 f2 d4 ^c=B c4 | d8 c6 c2 | f4 a4 g2 f2 f4- | %75
w: _ cu-|sto- di- en-|tes, cu-|sto- di- en-|tes se- pul- * * *|chrum per- di-|de- runt Re- * *|
 f2 ed e4 f8 | d8 B8 | c4 d6 A2 d4- | d2 c2 c6 =BA B4 | c6 f2 d6 e2 | f4 d4 e6 f2 | g4 f4 z4 f4- | %82
w: * * * * gem,|ad la-|pi- dis po- si-|* ti- o- * * *|nem, ad la- pi-|dis po- si- ti-|o- nem. Qua-|
 f2 d2 e6 c2 d4- | d4 B4 z4 f4 | d4 e4 f6 f2 | F8 c8 | A4 c2 d4 d2 c4 | z4 A4 G4 A4 | %88
w: * re non ser- va-|* bant pe-|tram ju- sti- ti-|æ, pe-|tram ju- sti- ti- æ,|pe- tram ju-|
 B4 A2 f4 ed e2 e2 | f4 f6 e2 d4- | d4 c4 d8 | B4 B8 A4 | B4 G4 B8 | A8 z4 d4 | f6 g2 a4 ^f4 | %95
w: sti- * * * * * ti-|æ? aut se- pul-|* tum red-|dant, aut se-|pul- tum red-|dant, aut|re- sur- gen- tem|
 g2 a2 b6 B2 f4 | f8 g8- | g8 f4 d4 | f4 f2 g2 a8 | d6 e2 ^c4 d4- | d4 ^c4 d8 | z4 d2 d2 =B4 ^c4 | %102
w: a- * do- * rent,|a- do-|* rent, no-|bis- cum di- cen-|tes, di- cen- *|* * tes.|Al- le- lu- *|
 d4 f2 a2 g4 e4 | d4 z4 z4 f4- | f2 e2 f2 e2 d2 c2 d4 | d8 z8 | z4 c6 A2 d2 c2 | =B2 A2 B8 ^c4 | %108
w: ia. Al- le- lu- *|ia. Al-|* le- lu- * * * *|ia|Al- le- lu- *||
 d8 z8 | z4 A6 G2 g2 f2 | e2 d2 e8 ^f4 | g4 z2 a4 f2 b2 a2 | a4 g2 f2 e8 | A4 d8 d4 | d8 d8- | %115
w: ia.|Al- le- lu- *||ia. Al- le- lu- *|ia. Al- le- lu-|ia. Al- le-|lu- ia.|
 !fermata!d16 |] %116
w: _|
V:3
 [Cd]2 | C2 D2 E2 E2 D2 D2 F2 F2 E2 E2 !fermata!D2 |[M:4/2] D8 A8 | A8 G8 | E8 D8 | F8 D8 | C8 E8 | %7
w: |Chri- * * stus _ re- * sur- * gens _|ex _|mor- *||* tu-||
 E8 D8 | A8 G8 | A8 B8 | A8 G8 | A8 E8 | D8 F8 | D8 C8 | D8 F8 | E8 F8 | G8 E8 | D8 F8 | F8 D8 | %19
w: is jam|_ _|||* non|_ _|mo- *|ri- *|tur: _|_ _|||
 D8 E8 | F8 G8 | G8 E8 | F8 G8 | E8 D8 | F8 F8- | F8 E8 | C8 D8 | E8 E8 | E8 D8 | D8 E8 | F8 E8 | %31
w: Mors il-||li _|_ _||* ul-|* tra|non _|_ do-|mi- *|na- *|* bi-|
 D8 D8 | D8 E8 | F8 G8 | G8 F8 | A8 F8 | G8 G8 | E8 F8 | G8 E8 | D8 F8 | F8 E8 | E8 C8 | D8 E8 | %43
w: * tur,|quod _|_ _|e- *||* nim|_ _|||vi- *|vit, vi-||
 C8 E8 | E8 D8 | D8 D8 | E8 F8 | G8 G8 | F8 A8 | F8 G8 | G8 E8 | F8 G8 | E8 D8 | F8 F8 | E8 C8 | %55
w: vit _|De- *|o. Al-|* le-|||||||lu- *|ia. Al-|
 D8 E8 | F8 E8- | E8 D8- | D16- | !fermata!D16 || F8 G8 | E8 D4 F4- | F4 E4 F8 | E8 z8 | %64
w: * le-|lu- *|* ia.|_||Di- cant|nunc Ju- dæ-||i,|
 z8 z4 G4- | G2 G2 A4 B6 A2 | F4 c4 c8 | F6 F2 G4 A4- | A2 G2 F8 E4 | F8 z8 | z4 D4 F4 F4 | %71
w: quo-|* mo- do mi- *|* li- tes,|quo- mo- do mi-|* * * li-|tes|cu- sto- di-|
 B8 A4 F2 A2- | A2 G2 F4 E8 | z4 F8 F4 | d4 c4 c8- | c8 A8 | z16 | A8 F8 | G4 A8 D4 | E4 F4 G8 | %80
w: en- tes se- pul-|* * * chrum|per- di-|de- runt Re-|* gem,||ad la-|pi- dis po-|si- ti- o-|
 F4 F4 G8- | G4 A4 B8 | A4 c8 A4 | B4 G4 A4 F4 | G8 F4 D4 | A6 A2 G8 | z4 F4 D4 E4 | %87
w: nem, po- si-|* ti- o-|nem. Qua- re|non ser- va- bant|pe- tram ju-|sti- ti- æ,|pe- tram ju-|
 F6 F2 C4 z2 F2 | E4 F4 G6 G2 | F16 | z4 F6 E2 D4- | D4 _E4 D8 | G8 G6 G2 | D4 D4 d8- | %94
w: sti- ti- æ, pe-|tram ju- sti- ti-|æ?|aut se- pul-|* tum red-|dant, aut se-|pul- tum red-|
 d4 c2 B2 A4 z2 A2 | B6 c2 d4 A4 | c4 d2 c2 B2 c2 d4- | d4 ^c4 d8 | z4 D8 A4- | A4 G8 F4 | E8 ^F8 | %101
w: * * * dant, aut|re- sur- gen- tem|a- do- * * * *|* * rent,|no- bis-|* cum di-|cen- tes|
 D8 E8 | F8 G8 | G8 F8 | A8 F8 | G8 G8 | E8 F8 | G8 E8 | D8 F8 | F8 E8 | C8 D8 | E8 F8 | E16 | %113
w: Al- *|le- *||||||* lu-|* ia.|Al- *|le- lu-||
 D16- | D16- | !fermata!D16 |] %116
w: ia.|_||
V:4
 [E,,C]2 | z22 |[M:4/2] z16 | z4 A,,4 C,6 G,,2 | A,,4 E,4 F,6 B,,2 | D,8 B,,8 | A,,4 C,8 G,,4 | %7
w: |||Ex mor- tu-|is, ex mor- tu-|is, jam|non mo- ri-|
 A,,8 z4 A,4- | A,4 F,4 E,6 E,2 | D,4 D,4 G,6 G,,2 | A,,8 z4 G,4 | ^F,6 F,2 G,8 | %12
w: tur, jam|_ non mo- ri-|tur, ex mor- tu-|is, ex|mor- tu- is,|
 A,4 B,4 A,6 G,A, | B,2 A,2 G,2 F,2 G,4 G,4 | F,8 z4 D,4 | ^C,6 C,2 D,8 | G,,8 A,,8 | %17
w: jam non mo- * *|* * * * * ri-|tur, ex|mor- tu- is,|jam non|
 B,,6 G,,2 F,,8 | F,,4 F,,4 G,,6 G,,2 | D,8 z8 | z4 F,4 E,3 F, G,4 | C,16 | z4 C6 C2 =B,4 | %23
w: mo- ri- tur,|jam non mo- ri-|tur:|Mors il- * *|li|ul- tra non|
 C4 G,4 A,6 A,2 | D,4 D,4 B,,3 C, D,4- | D,4 A,,4 C,8 | A,,4 A,,4 G,,4 G,,4 | C,6 B,,2 A,,4 G,,4 | %28
w: do- mi- na- bi-|tur, mors il- * *|* li ul-|tra non do- mi-|na- * * bi-|
 A,,8 z4 A,4- | A,2 A,2 F,4 G,4 E,4 | D,6 D,2 A,,8 | z4 A,4 B,4 A,4 | D,2 E,2 F,4 C,8 | %33
w: tur, ul-|* tra non do- mi-|na- bi- tur,|quod e- nim|vi- * * vit,|
 z4 A,4 B,4 A,4 | G,2 A,2 B,2 G,2 A,4 A,4- | A,2 B,2 C8 F,4 | z8 C,8 | C,4 C,4 D,8 | %38
w: quod e- nim|vi- * * * vit, vi-|* vit De- o,|quod|e- nim vi-|
 G,,4 B,,4 A,,8 | z4 F,6 G,2 A,4- | A,4 D,4 A,,6 =B,,2 | C,8 A,,8 | G,,4 F,,4 E,,8 | %43
w: * * vit,|vi- vit De-|* o, vi- vit|De- o,|De- * o,|
 A,,6 =B,,2 C,2 D,2 E,2 F,2 | G,4 E,4 ^F,6 G,2 | A,8 z4 F,2 F,2 | G,4 E,4 D,8 | z8 z4 C,2 C,2 | %48
w: vi- vit De- * * *|* o, De- *|o. Al- le-|lu- * ia.|Al- le-|
 D,4 B,,4 A,,8 | z4 B,,6 G,,2 B,,2 A,,2 | G,,2 F,,2 G,,4 C,8 | z8 z4 G,4- | %52
w: lu- * ia.|Al- le- lu- *|* * * ia.|Al-|
 G,2 E,2 A,2 G,2 F,2 E,2 F,2 G,2 | A,4 A,2 G,2 F,2 E,2 D,4 | C,4 C6 G,2 C2 B,2 | %55
w: * le- lu- * * * * *|ia. Al- le- lu- * *|ia. Al- le- lu- *|
 A,2 G,2 A,4 G,4 C,2 C,2 | D,8 A,,8 | z4 G,6 ^F,2 A,2 G,2 | ^F,2 E,2 F,4 G,2 A,2 B,4 | %59
w: * * * ia. Al- le-|lu- ia.|Al- le- lu- *||
 !fermata!A,16 || z16 | A,,8 B,,4 D,4- | D,4 ^C,4 D,8 | A,,6 C,2 B,,8 | A,,8 z8 | z8 z4 D,4- | %66
w: ia.||Di- cant nunc|_ Ju- dæ-|i, Ju- dæ-|i,|quo-|
 D,2 D,2 E,4 F,6 E,2 | D,4 D,4 C,4 F,,4 | F,4 F,4 B,8 | A,4 F,4 G,8 | F,8 z8 | z8 D,6 D,2 | %72
w: * mo- do mi- *|* li- tes cu-|sto- di- en-|tes se- pul-|chrum|per- di-|
 ^C,4 D,4 A,,8 | D,8 z8 | F,6 F,2 E,4 F,4 | C,8 F,8 | z16 | z4 D,8 B,,4- | B,,4 C,4 D,8 | %79
w: de- runt Re-|gem,|per- di- de- runt|Re- gem,||ad la-|* pi- dis|
 A,,8 B,,4 C,4 | D,8 C,8 | z4 F,4 D,6 E,2 | F,4 C,4 E,4 F,4 | G,8 F,8 | z8 z4 F,4- | %85
w: po- si- ti-|o- nem,|ad la- pi-|dis po- si- ti-|o- nem.|Qua-|
 F,4 D,4 E,4 C,4 | F,4 F,,4 z8 | z4 F,4 E,4 F,4 | G,6 D,2 G,,8 | z4 D,6 C,2 B,,4- | %90
w: * re non ser-|va- bant|pe- tram ju-|sti- ti- æ?|aut se- pul-|
 B,,4 A,,4 B,,8 | G,,8 z8 | z4 B,6 A,2 G,4- | G,4 ^F,4 G,8 | D,8 z4 D,4 | G,6 A,2 B,4 F,4 | %96
w: * tum red-|dant,|aut se- pul-|* tum red-|dant, aut|re- sur- gen- tem|
 A,4 B,6 A,2 G,2 F,2 | E,8 D,8 | D,8 F,8 | F,4 G,4 A,8 | A,,8 D,8 | z4 F,2 F,2 G,4 E,4 | D,8 z8 | %103
w: a- do- * * *|* rent|no- bis-|cum di- cen-|* tes|Al- le- lu- *|ia.|
 z4 C,2 C,2 D,4 B,,4 | A,,8 z4 B,,4- | B,,2 G,,2 B,,2 A,,2 G,,2 F,,2 G,,4 | C,8 z8 | %107
w: Al- le- lu- *|ia. Al-|* le- lu- * * * *|ia.|
 z4 G,6 E,2 A,2 G,2 | F,2 E,2 F,2 G,2 A,4 A,2 G,2 | F,2 E,2 D,4 C,4 C4- | %110
w: Al- le- lu- *|* * * * ia. Al- le-|lu- * * ia. Al-|
 C2 G,2 C2 B,2 A,2 G,2 A,4 | G,4 C,2 C,2 D,8 | A,,8 z4 G,4- | G,2 ^F,2 A,2 G,2 F,2 E,2 F,4 | %114
w: * le- lu- * * * *|ia. Al- le- lu-|ia. Al-|* le- lu- * * * *|
 G,2 A,2 B,8 A,2 G,2 | !fermata!A,16 |] %116
w: |ia.|

